X: 233
M: C|
L: 1/8
K: G
V: 1
dBGB dBge | dBGB dBge | {e}d2cB {d}c2BA | BGAB AFED |\
dBGB dBge | dBGB dBge | fafd ege^c | d4 D2 :|
|: de |\
{g}=f2ed {f}e2dc | {e}d2cB A2cd | {f}e2dc {e}d2cB | {d}c2BA G2Bc |\
dBdB dBge | dBdB dBge | {e}d2cB {d}c2BA | G2D2 G,2 :|
V: 2 clef=bass middle=d
z2 |\
|: z2 |\
b4 ^g4 | e4 A4 | a4 f4 | d4 g4 |\

